configs/marketplace-logos/rehold.svg

<svg width="80" height="80" viewBox="0 0 80 80" fill="none" xmlns="http://www.w3.org/2000/svg">
<rect width="80" height="80" fill="url(#paint0_linear_4988_46643)"/>
<path d="M48.25 22H25.1007C23.8465 22 23.1461 23.4477 23.9246 24.4311L49.5992 56.8621C50.1682 57.5809 51.0346 58 51.9513 58H59.5543C60.7803 58 61.4885 56.6092 60.7674 55.6177L50.3372 41.2761C54.719 40.3205 58 36.4184 58 31.75C58 26.3652 53.6348 22 48.25 22Z" fill="white"/>
<path d="M24.5785 38.1674C23.6411 37.1977 22 37.8613 22 39.2099V56.5C22 57.3284 22.6716 58 23.5 58H40.2137C41.5379 58 42.2125 56.4095 41.2922 55.4575L24.5785 38.1674Z" fill="white"/>
<defs>
<linearGradient id="paint0_linear_4988_46643" x1="80" y1="11" x2="-4.11272e-06" y2="80" gradientUnits="userSpaceOnUse">
<stop stop-color="#4600BF"/>
<stop offset="0.280667" stop-color="#7E00FC"/>
<stop offset="0.598381" stop-color="#DE49FF"/>
<stop offset="0.848386" stop-color="#FFFA5B"/>
</linearGradient>
</defs>
</svg>

<svg xmlns="http://www.w3.org/2000/svg" fill="none" viewBox="0 0 80 80">
  <path fill="url(#rehold_svg__a)" d="M0 0h80v80H0z"/>
  <path fill="#fff" d="M48.25 22H25.1c-1.254 0-1.954 1.448-1.175 2.431l25.674 32.431A3 3 0 0 0 51.951 58h7.603c1.226 0 1.934-1.39 1.213-2.382l-10.43-14.342C54.72 40.32 58 36.418 58 31.75A9.75 9.75 0 0 0 48.25 22ZM24.578 38.167c-.937-.97-2.578-.306-2.578 1.043V56.5a1.5 1.5 0 0 0 1.5 1.5h16.714c1.324 0 1.998-1.59 1.078-2.542l-16.714-17.29Z"/>
  <defs>
    <linearGradient id="rehold_svg__a" x1="80" x2="0" y1="11" y2="80" gradientUnits="userSpaceOnUse">
      <stop stop-color="#4600BF"/>
      <stop offset=".281" stop-color="#7E00FC"/>
      <stop offset=".598" stop-color="#DE49FF"/>
      <stop offset=".848" stop-color="#FFFA5B"/>
    </linearGradient>
  </defs>
</svg>
